build/system/ArrowLeftOutline.svg

<svg xmlns="http://www.w3.org/2000/svg" fill="none" viewBox="0 0 24 24" focusable="false"><path d="M0 0H24V24H0z"/><path fill="#74767B" fill-rule="evenodd" d="M11.5426 18.1482C11.4126 18.2882 11.2426 18.3582 11.0626 18.3582C10.9026 18.3582 10.7526 18.3082 10.6226 18.1882L4.5826 12.6982C4.2726 12.4182 4.2726 11.9382 4.5826 11.6582L10.6226 6.16817C10.8926 5.92817 11.3026 5.94817 11.5426 6.20817C11.7826 6.47817 11.7726 6.88817 11.5026 7.12817L6.66695 11.5282L17.5626 11.5282C17.9216 11.5282 18.2126 11.8192 18.2126 12.1782C18.2126 12.5372 17.9216 12.8282 17.5626 12.8282L6.66695 12.8282L11.5026 17.2282C11.7626 17.4682 11.7826 17.8782 11.5426 18.1482Z"/></svg>

<svg xmlns="http://www.w3.org/2000/svg" fill="none" viewBox="0 0 24 24" focusable="false"><path fill="#74767B" fill-rule="evenodd" d="M11.54 18.14c-.13.14-.3.21-.48.21-.16 0-.31-.05-.44-.17l-6.04-5.49a.7.7 0 0 1 0-1.04l6.04-5.49c.27-.24.68-.22.92.04.24.27.23.68-.04.92l-4.84 4.4h10.9c.36 0 .65.29.65.65s-.29.65-.65.65H6.66l4.84 4.4c.26.24.28.65.04.92"/></svg>
